X: 1
T: Matalan torpan balladi
O: Trad Finland
Z: John Chambers <jc@trillian.mit.edu>
M: C|
L: 1/8
K: Em
|: "Em"E2EE EFGG | "Am"F2FE "B7"^D2B,B, | "Em"E2EE EFGG | "Am"F4 "B7"B2z2 :|
|: "Am"A2AA A2c2 | "B7"B2BA "Em"B2GG | "Am"F2FE "B7"^D2B,2 | "Em"E4 E2z2 :|
